X:6678
T:the Cumberland Reel
O:england
M:C|
A:North-West
R:Reel
K:Bb
F|\
B2bg fdcB| AFcF dFcF| B2bg fdcB| FBAc dB B::
c|\
BGFE DFFD| ECC=B cGGA| BGFE DEFD| B,BAc dB B:|
